!!!COM: Beethoven, Ludwig van
!!!CDT: 1770///-1827///
!!!OTL: Piano Sonata no. 2 in A major
!!!ODT: 1794///-1795///
!!!ODE: Joseph Haydn
!!!OMD: Scherzo: Allegretto
!!!OPS: 2
!!!ONM: 2
!!!OMV: 3
**kern	**kern	**dynam
*staff2	*staff1	*staff1/2
*Ipiano	*Ipiano	*Ipiano
*>[A,A,B,B,C,C,D,D,A,B]	*>[A,A,B,B,C,C,D,D,A,B]	*>[A,A,B,B,C,C,D,D,A,B]
*>norep[A,B,C,D,A,B]	*>norep[A,B,C,D,A,B]	*>norep[A,B,C,D,A,B]
*>A	*>A	*>A
*clefF4	*clefG2	*clefG2
*k[f#c#g#]	*k[f#c#g#]	*k[f#c#g#]
*A:	*A:	*A:
*M3/4	*M3/4	*M3/4
*MM144	*MM144	*MM144
4r	16aaLL	p
.	16ee	.
.	16ccc#	.
.	16aaJJ	.
=1	=1	=1
4r	4eee	.
4A 4c# 4e	4r	.
4r	16cc#LL	.
.	16a	.
.	16ee	.
.	16cc#JJ	.
=2	=2	=2
4r	4aa	.
4AA 4C# 4E 4A	4r	.
4r	16c#LL	.
.	16A	.
.	16e	.
.	16c#JJ	.
=3	=3	=3
4A'	4a'	.
4F#'	4B' 4d#' 4a'	.
4D#'	4B' 4f#' 4a'	.
=4	=4	=4
*	*^	*
(4E	4f# (4a	2B	.
4EE)	4e 4g#)	.	.
4r	4ryy	16gg#LL	.
.	.	16ee	.
.	.	16bb	.
.	.	16gg#JJ	.
*	*v	*v	*
=5	=5	=5
4r	4ddd	.
4E 4G# 4B 4d	4r	.
4r	16g#LL	.
.	16e	.
.	16b	.
.	16g#JJ	.
=6	=6	=6
4r	4dd	.
4EE 4GG# 4BB 4E	4r	.
4r	16dLL	.
.	16B	.
.	16e	.
.	16dJJ	.
=7	=7	=7
4r	4g#	.
4E' 4B'	4d' 4g#'	.
4E' 4B'	4d' 4g#'	.
=8	=8	=8
*^	*	*
(4G#	2AA	(4d 4b	.
4A)	.	4c#) 4a	.
*v	*v	*	*
=:|!|:	=:|!|:	=:|!|:
*>B	*>B	*>B
16G#LL	4r	.
16E	.	.
16B	.	.
16G#JJ	.	.
=9	=9	=9
4e	4r	.
4r	4g# 4b 4ee	<
16G#LL	4r	.
16D	.	.
16B	.	.
16G#JJ	.	.
=10	=10	=10
4d	4r	.
4r	4f# 4b 4ff#	.
16E#LL	4r	.
16C#	.	.
16G#	.	.
16E#JJ	.	.
=11	=11	=11
4c#	4r	.
4r	4g# 4b 4ee# 4gg#	.
4c#	4r	.
=12	=12	=12
(4c#	4g# 4b (4ee#	f
4F#)	4a 4ff#)	.
16ALL	4r	p
16F#	.	.
16c#	.	.
16AJJ	.	.
=13	=13	=13
4f#	4r	.
4r	4a 4cc# 4ff#	<
16G#LL	4r	.
16E	.	.
16c#	.	.
16G#JJ	.	.
=14	=14	=14
4e	4r	.
4r	4g# 4cc# 4gg#	.
16F##LL	4r	.
16D#	.	.
16A#	.	.
16F##JJ	.	.
=15	=15	=15
4d#	4r	.
4r	4a# 4cc# 4ff## 4aa#	.
4d#	4r	.
=16	=16	=16
!	!	!LO:DY:rj
(4d#	4a# 4cc# (4ff##	f
4G#)	4b 4gg#)	.
4r	4r	.
=17	=17	=17
!	!	!LO:DY:rj
(4B	4g# (4dd#	ff
4c#)	4g# 4ee)	.
4r	4r	.
=18	=18	=18
4r	4r	.
4D# (4B	(4d# 4g#	p
4D# 4A#)	4c#) 4f##	.
=19	=19	=19
8GG# 8G#L	4B 4g#	.
8d#	.	.
8B	(4dd#'	.
8d#	.	.
8G#	4dd#')	.
8d#J	.	.
=20	=20	=20
8A#L	(2dd	.
8d#	.	.
8c#	.	.
8d#	.	.
8A#	4f##)	.
8d#J	.	.
=21	=21	=21
8BL	(4g#	.
8d#	.	.
8A#	4a#	.
8c#	.	.
8G#	4b/)	.
8BJ	.	.
=22	=22	=22
.	(8bq	.
8C#L	()4a#	.
8c#	.	.
8D#	4g#	.
8B	.	.
8D#	4f##t)	.
8A#J	.	.
.	(16e#qLL	.
.	16f##qJJ	.
=23	=23	=23
8G#L	4g#)	.
8d#	.	.
8B	(4dd#'	.
8d#	.	.
8G#	4dd#')	.
8d#J	.	.
=24	=24	=24
8A#L	(2dd#	.
8d#	.	.
8c#	.	.
8d#	.	.
8A#	4f##)	.
8d#J	.	.
=25	=25	=25
*	*^	*
2.B 2.d#	4r	2.g#	<
.	(4dd#'	.	.
.	4dd#')	.	.
=26	=26	=26	=26
2.B 2.f#	2.dd#	4r	.
.	.	(>4an'>	.
.	.	4a'>)	[[
=27	=27	=27	=27
2.E 2.B 2.e	4r	2.g#	>
.	(4ddn'	.	.
.	4dd')	.	]]
=28	=28	=28	=28
2.A 2.e	2.cc#	4r	.
.	.	(>4gn'>	.
.	.	4g'>)	.
=29	=29	=29	=29
!	!	!	!LO:DY:rj
2.D 2.A 2.d	4r	2.f#	pp
.	(4dd'	.	.
.	4dd')	.	.
=30	=30	=30	=30
!!LO:TX:a:B:t=Rallentando
2.BB 2.E 2.B	4r	2.d 2.g#	.
.	(4dd'	.	.
.	4dd')	.	.
*	*v	*v	*
=31	=31	=31
2.r	2.r	.
=32	=32	=32
2.r	4r	.
.	4r	.
!!LO:TX:a:B:t=a Tempo
.	16aaLL	p
.	16ee	.
.	16ccc#	.
.	16aaJJ	.
=33	=33	=33
4r	4eee	.
4A 4c# 4e	4r	.
4r	16cc#LL	.
.	16a	.
.	16ee	.
.	16cc#JJ	.
=34	=34	=34
4r	4aa	.
4AA 4C# 4E 4A	4r	.
4r	16c#LL	.
.	16A	.
.	16e	.
.	16c#JJ	.
=35	=35	=35
4A'	4a'	.
4F#'	4B' 4d#' 4a'	.
4D#'	4B' 4f#' 4a'	.
=36	=36	=36
*	*^	*
(4E	4f# (4a	2B	.
4EE)	4e 4g#)	.	.
4r	4ryyy	16gg#LL	.
.	.	16ee	.
.	.	16bb	.
.	.	16gg#JJ	.
*	*v	*v	*
=37	=37	=37
4r	4ddd	.
4E 4G# 4B 4d	4r	.
4r	16g#LL	.
.	16e	.
.	16b	.
.	16g#JJ	.
=38	=38	=38
4r	4dd	.
4EE 4GG# 4BB 4E	4r	.
4r	16dLL	.
.	16B	.
.	16e	.
.	16dJJ	.
=39	=39	=39
4r	4g#	.
4E' 4B'	4d' 4g#'	.
4E' 4B'	4d' 4g#'	.
=40	=40	=40
*^	*	*
(4G#	2AA	(4d (4b	.
4A)	.	4c#) 4a)	.
16C#LL	4ryyy	4r	f
16AA	.	.	.
16E	.	.	.
16C#JJ	.	.	.
*v	*v	*	*
=41	=41	=41
4A	4r	.
4r	4c# 4e 4a 4cc#	.
16FF#LL	4r	.
16DD	.	.
16AA	.	.
16FF#JJ	.	.
=42	=42	=42
4D/	4r	.
4r	4f# 4a 4dd 4ff#	.
16GG#LL	4r	.
16EE	.	.
16BB	.	.
16GG#JJ	.	.
=43	=43	=43
4E	4r	.
4r	4g# 4b 4dd 4gg#	ff
!	!	!LO:DY:b=2
4EE	4r	ff
=44	=44	=44
4r	4a 4cc# 4aa	ff
!	!	!LO:DY:b=2:rj
4AAA	4r	ff
!!LO:TX:a:rj:i:t=Fin
=:|!|:	=:|!|:	=:|!|:
*>C	*>C	*>C
*k[]	*k[]	*k[]
!!LO:TX:a:B:t=Minore
4r	4e	p
=45	=45	=45
8AL	(4cc	.
8e	.	.
8B	4b	.
8e	.	.
8c	4a\)	.
8eJ	.	.
=46	=46	=46
*	*^	*
!	!	!	!LO:DY:rj
8dL	(4ff	(4g#	sf
8e	.	.	.
8c	4ee	4a	.
8e	.	.	.
8B	4dd)	4b)	.
8eJ	.	.	.
=47	=47	=47	=47
8AL	4cc	(4cc	.
8e	.	.	.
8B	2ry	4b	.
8e	.	.	.
8c	.	4a)	.
8eJ	.	.	.
=48	=48	=48	=48
!	!	!	!LO:DY:rj
8dL	(4ff	(4g#	sf
8e	.	.	.
8c	4ee	4a	.
8e	.	.	.
8B	4dd)	4b)	.
8eJ	.	.	.
=49	=49	=49	=49
8AL	(4cc	4cc	.
8e	.	.	.
8Gn	2ryyy	4b	.
8e	.	.	.
8F#	.	4a\	.
8d#J	.	.	.
*	*v	*v	*
=50	=50	=50
8EL	4gn	.
8G	.	.
8F#	4f#	.
8A	.	.
8G	4e	.
8BJ	.	.
=51	=51	=51
8AAL	4c	.
8A	.	.
8BB	4B	.
8G	.	.
8BB	4A 4d#	.
8F#J	.	.
=52	=52	=52
4E	4G 4e)	.
4EE	4r	.
=:|!|:	=:|!|:	=:|!|:
*>D	*>D	*>D
4r	4gT	.
.	(16f#qLL	.
.	16gqJJ)	.
*clefG2	*	*
=53	=53	=53
8cL	(4ee	.
8g	.	.
8d	4dd	.
8g	.	.
8e	4cc)	.
8gJ	.	.
=54	=54	=54
*	*^	*
8fL	(4aa	4b	sf
8g	.	.	.
8e	4gg	4cc	.
8g	.	.	.
8d	4ff)	4dd	.
8gJ	.	.	.
=55	=55	=55	=55
8cL	4ee	(>4ee	.
8g	.	.	.
8d	2ryyy	4dd	.
8g	.	.	.
8e	.	4cc)	.
8gJ	.	.	.
=56	=56	=56	=56
8gL	(4bb-	4cc#	sf
8a	.	.	.
8f	4aa	4dd	.
8a	.	.	.
8e	4gg)	4ee	.
8aJ	.	.	.
=57	=57	=57	=57
8dL	4ff	(>4ff	.
8a	.	.	.
8c	2ryyy	4ee	.
8a	.	.	.
8B	.	4dd	.
8g#J	.	.	.
*clefF4	*	*	*
=58	=58	=58	=58
8A	4cc	8r	<
8r	.	8a	.
8Gn	4b	8r	.
8r	.	8gn	.
8F	4a	8r	.
8r	.	8f	.
=59	=59	=59	=59
8E	4g#	8r	.
8r	.	8e	.
8D	4f	8r	.
8r	.	8d	.
8C	4e	8r	.
8r	.	8c	.
*	*v	*v	*
=60	=60	=60
8BBL	4d	.
8B	.	.
8AA	4c	.
8A	.	.
8GG#	4B)	.
8G#XJ	.	[
=61	=61	=61
8AA 8AL	4c (>4cc	fp
8e	.	.
8B	4b/	.
8e	.	.
8c	4a)	.
8eJ	.	.
=62	=62	=62
*^	*^	*
!	!	!	!	!LO:DY:rj
8dL	[2.E	(4ff	2.g#	sf
8e	.	.	.	.
8c	.	4ee	.	.
8e	.	.	.	.
8B	.	4dd)	.	.
8eJ	.	.	.	.
*	*	*v	*v	*
=63	=63	=63	=63
8AL	2.E]	(4cc	.
8e	.	.	.
8B	.	4b	.
8e	.	.	.
8c	.	4a\)	.
8eJ	.	.	.
=64	=64	=64	=64
!	!	!	!LO:DY:rj
8dL	[2.E	4g# 4ff (4gg#	sf
8e	.	.	.
8c	.	4a 4ee 4aa	.
8e	.	.	.
8B	.	4b 4dd 4bb)	.
8eJ	.	.	.
=65	=65	=65	=65
8AL	2.E]	4cc (4ccc	.
8e	.	.	.
8B	.	4b 4bb	.
8e	.	.	.
8c	.	4a 4aa)	.
8eJ	.	.	.
=66	=66	=66	=66
!	!LO:DY:rj	!	!
8dL	2.Ez	4ff 4gg# (4fff	ff
8e	.	.	.
8c	.	4ee 4aa 4eee	.
8e	.	.	.
8B	.	4dd 4bb 4ddd)	.
8eJ	.	.	.
*v	*v	*	*
=67	=67	=67
8AL	4cc' 4ccc'	.
8a>J	.	.
8DL	4dd' 4ff' 4bb' 4ddd'	.
8d	.	.
8E	4b' 4dd' 4gg#' 4bb'	.
8eJ	.	.
=68	=68	=68
4A	4a' 4cc' 4aa'	.
4AA	4r	.
!!LO:TX:b:t=D.C.:rj
==:|!	==:|!	==:|!
*-	*-	*-
!!!RDF**kern: > = above
!!!RDF**kern: < = below
!!!ENC: Craig Stuart Sapp
!!!END: 2007/11/27
!!!EEV: 2019/07/04
!!!EED: Craig Stuart Sapp
